X:1
T: Mrs. H. Inglis
C:William Marshall
R:Strathspey
Q: 128
K:C
M:4/4
L:1/16
|:c2|GC3 G3E GC3 C3c|AD3 A3G AD3 D3c|GC3 G3E c3d ed3|c3A G3E CCC2 C2c2|
GC3 G3E GC3 C3c|AD3 A3G AD3 D3c|GC3 G3E c3d ed3|c3A G3E CCC2 C2e2|
g3a g3e c3d e3c|a3b a3f d3e f3d|g3a g3e c3d e3d|cA3 G3E CCC2 C2e2|
g3a g3e c3d e3c|a3b a3f d3e f3d|g3a g3e cf3 e3d|cA3 G3E CCC2 C2:|
